X: 25
T: Panie, uczyń sąd o mnie, a tam ujźrzysz moje
C: Mikołaj Gomółka
%%abc-version 2.0
%%abcx-abcm2ps-target-version 5.9.1 (29 Sep 2008)
%%abc-creator hum2abc beta
%%abcx-conversion-date 2021/10/04 07:59:09
%%abc-edited-by Marta Lawrence
%%abcx-initial-encoding-date 2020-02-07
%%humdrum-veritas 3461349959
%%humdrum-veritas-data 2912966455
%%linebreak <none>
%%barnumbers 0
L: 1/4
M: C|
N: Derived from pl-wn--sd-xvi-qu-273--026_gomolka-mikolaj--panie-uczyn-sad-o-mnie-a-tam-ujzrzysz-moje.krn
%%staves [1 2 3 4]
V: 1
V: 2
V: 3 clef=alto
V: 4
K: C
[V:1] G4G2G2 [|] 
[V:2] D4E3D [|] 
[V:3] B,4C3D [|] 
[V:4] G,4C,2C2 [|] 
[V:1] A2B2c4 [|] 
[V:2] C2G2G2^F2 [|] 
[V:3] E2D4C2 [|] 
[V:4] C2B,2A,4 [|] 
[V:1] B2c2>B2A4 [|] 
[V:2] G2E2=F2F4 [|] 
[V:3] D2C2C4 [|] 
[V:4] G,2A,2>G,2F,4 [|] 
[V:1] G4F2 [|] 
[V:2] D2D3C [|] 
[V:3] C2B,2A,4 [|] 
[V:4] G,2D,4 [|] 
[V:1] G2E2F4 [|] 
[V:2] B,2C2A,2D2 [|] 
[V:3] G,2G,2F,G,A,B, [|] 
[V:4] E,2C,2D,E,F,G, [|] 
[V:1] E2CDEFGA [|] 
[V:2] A,2>B,2CDEF [|] 
[V:3] CDE2E2E2 [|] 
[V:4] A,B,C2C2C2 [|] 
[V:1] B2c4B2 [|] 
[V:2] G2F2G3F [|] 
[V:3] D2C2D4 [|] 
[V:4] B,2A,2G,4 [|] 
[V:1] c2 ]|:  
[V:2] E2 ]|:  
[V:3] C2 ]|:  
[V:4] C,2 ]|:  
[V:1] G2c3B [I:setbarnb 9][|] 
[V:2] CDE2E2 [|] 
[V:3] EDC2C3 [|] 
[V:4] CB,2<A,2G, [|] 
[V:1] A2G2E2F2 [|] 
[V:2] F2C2c2BA [|] 
[V:3] DEDCB,C2 [|] 
[V:4] F,2E,2A,4 [|] 
[V:1] G2E2>F2G2 [|] 
[V:2] B2G2>F2ED [|] 
[V:3] D2C2C3B, [|] 
[V:4] G,2C,4C,2 [|] 
[V:1] A2A2G4 [|] 
[V:2] C2FEDE2D [|] 
[V:3] A,2A,2B,C2B, [|] 
[V:4] F,2F,2G,4 [|] 
[V:1] !fermata!G16 :|]  
[V:2] E16 :|]  
[V:3] C16 :|]  
[V:4] C,16 :|]  


